X:691
T:Quick Step. JBut.688, A
B:John Buttrey MS, poss. Lincolnshire, early 19thC
S:https://buttreymilitarysocialtunes1800.wordpress.com/
Z:Village Music Project Quinton Cumbes 2019
M:2/4
L:1/8
Q:1/4=120
K:G
g2 d/e/d/c/|dd d2|d2 B/c/B/A/|GG G2|\
A/G/A/B/ cc|B/A/B/c/ dd|
ed cB|A2A2:|\
|:A/G/F/G/ A/G/F/G/|\
Ac Tc2|B/A/G/A/ B/A/G/A/|
Bd d2|g2 d/e/d/c/|BB B2|B/A/G/B/ A/G/F/A/| GG G2:|

